X: 571
T: Jordans Favorite
%R: reel
Z: 2018 John Chambers <jc:trillian.mit.edu>
B: John Treat - "Gamut for the Fifes", 1779, p.57 #1
F: https://archive.org/details/GamutFortheFifes
M: C
L: 1/8
K: D
% - - - - - - - - - - - - - - - - - - - - - - - - -
|:\
AFAD AFAD | AFAD BEE2 | AFAD defe | dBAF ADD2 ::\
dBAF defe | dBAF BEE2 |
dBAF defe | dBAF ADD2 ::\
abaf defd | efdf eEE2 | abaf defe | dBAF ADD2 :|
% - - - - - - - - - - - - - - - - - - - - - - - - -
